pro/src/icons/full-sort.svg

<svg width="48" height="48" viewBox="0 0 48 48" xmlns="http://www.w3.org/2000/svg">
<path id="icon" fill-rule="evenodd" clip-rule="evenodd" d="M4.00006 11C4.00006 9.89543 4.89549 9 6.00006 9L42.0001 9C43.1046 9 44.0001 9.89543 44.0001 11C44.0001 12.1046 43.1046 13 42.0001 13L6.00006 13C4.89549 13 4.00006 12.1046 4.00006 11ZM4.00006 24C4.00006 22.8954 4.89549 22 6.00006 22L34 22C35.1046 22 36 22.8954 36 24C36 25.1046 35.1046 26 34 26L6.00006 26C4.89549 26 4.00006 25.1046 4.00006 24ZM5.99988 35C4.89531 35 3.99988 35.8954 3.99988 37C3.99988 38.1046 4.89531 39 5.99988 39H22C23.1046 39 24 38.1046 24 37C24 35.8954 23.1046 35 22 35H5.99988Z" fill="currentColor"/>
</svg>

<svg xmlns="http://www.w3.org/2000/svg" width="48" height="48"><path id="icon" fill="currentColor" fill-rule="evenodd" d="M4 11a2 2 0 0 1 2-2h36a2 2 0 0 1 0 4H6a2 2 0 0 1-2-2m0 13a2 2 0 0 1 2-2h28a2 2 0 1 1 0 4H6a2 2 0 0 1-2-2m2 11a2 2 0 1 0 0 4h16a2 2 0 1 0 0-4z" clip-rule="evenodd"/></svg>
